src/icons/text-plain.svg

<svg height="32" viewBox="0 0 32 32" width="32" xmlns="http://www.w3.org/2000/svg"><path d="m13.2 2v1.75h14.933333v17.5h-7.466666v1.75 5.25h-14.9333339v-17.5h-1.8666667v19.25h1.8666667 14.9333339 1.866666v-.01715l.014583.01715 7.452084-6.986329v-.013671-2.460938-18.539062h-1.866667zm0 5.25v1.75h11.2v-1.75zm-3.7333335 5.25v1.75h14.9333335v-1.75zm0 5.25v1.75h14.9333335v-1.75zm0 5.25v1.75h7.4666665v-1.75z" fill="#4285f4"/><path d="m1.9999997 2 3.7333334 5.25 3.7333334-5.25z" fill="#f25022"/></svg>

<?xml version="1.0" encoding="UTF-8" standalone="no"?>
<svg
   xmlns:dc="http://purl.org/dc/elements/1.1/"
   xmlns:cc="http://creativecommons.org/ns#"
   xmlns:rdf="http://www.w3.org/1999/02/22-rdf-syntax-ns#"
   xmlns:svg="http://www.w3.org/2000/svg"
   xmlns="http://www.w3.org/2000/svg"
   xmlns:sodipodi="http://sodipodi.sourceforge.net/DTD/sodipodi-0.dtd"
   xmlns:inkscape="http://www.inkscape.org/namespaces/inkscape"
   viewBox="0 0 32 32"
   version="1.1"
   id="svg12"
   sodipodi:docname="text-plain.svg"
   inkscape:version="0.92.4 5da689c313, 2019-01-14"
   width="32"
   height="32">
  <metadata
     id="metadata16">
    <rdf:RDF>
      <cc:Work
         rdf:about="">
        <dc:format>image/svg+xml</dc:format>
        <dc:type
           rdf:resource="http://purl.org/dc/dcmitype/StillImage" />
        <dc:title />
      </cc:Work>
    </rdf:RDF>
  </metadata>
  <sodipodi:namedview
     pagecolor="#ffffff"
     bordercolor="#666666"
     borderopacity="1"
     objecttolerance="10"
     gridtolerance="10"
     guidetolerance="10"
     inkscape:pageopacity="0"
     inkscape:pageshadow="2"
     inkscape:window-width="1366"
     inkscape:window-height="703"
     id="namedview14"
     showgrid="false"
     inkscape:zoom="5.3636364"
     inkscape:cx="-13.423728"
     inkscape:cy="18.457627"
     inkscape:window-x="0"
     inkscape:window-y="0"
     inkscape:window-maximized="1"
     inkscape:current-layer="svg12" />
  <defs
     id="defs3051">
    <style
       type="text/css"
       id="current-color-scheme">
     .ColorScheme-Text {
       color:#f2f2f2;
     }
     </style>
  </defs>
  <defs
     id="defs8">
    <style
       type="text/css"
       id="style6">
     .ColorScheme-Text {
       color:#3daee9;
     }
     </style>
  </defs>
  <g
     id="g821">
    <path
       inkscape:connector-curvature="0"
       id="path4"
       class="ColorScheme-Text"
       d="m 13.2,2 v 1.75 h 14.933333 v 17.5 H 20.666667 V 23 28.25 H 5.7333331 V 10.75 H 3.8666664 V 30 H 5.7333331 20.666667 22.533333 V 29.98285 L 22.547916,30 30,23.013671 V 23 20.539062 2 h -1.866667 z m 0,5.25 V 9 H 24.4 V 7.25 Z M 9.4666665,12.5 v 1.75 H 24.4 V 12.5 Z m 0,5.25 V 19.5 H 24.4 v -1.75 z m 0,5.25 v 1.75 H 16.933333 V 23 Z"
       style="color:#f2f2f2;fill:#4285f4;fill-opacity:1;stroke:none;stroke-width:1.80739224" />
    <path
       inkscape:connector-curvature="0"
       id="path10"
       class="ColorScheme-Text"
       d="M 1.9999997,2 5.7333331,7.25 9.4666665,2 Z"
       style="color:#3daee9;fill:#f25022;fill-opacity:1;stroke:none;stroke-width:1.80739224" />
  </g>
</svg>
